share/icons/Flat-Remix-Blue-Dark/mimetypes/scalable/text-x-iptables.svg

<svg xmlns="http://www.w3.org/2000/svg" xmlns:xlink="http://www.w3.org/1999/xlink" width="36pt" height="36pt" version="1.1" viewBox="0 0 36 36"> <defs> <clipPath id="clip1"> <path d="M 20 2 L 31 2 L 31 13 L 20 13 Z M 20 2"/> </clipPath> <clipPath id="clip2"> <path d="M 20.515625 2.625 L 30.328125 12.4375 L 22.023438 12.4375 C 21.292969 12.4375 20.515625 11.660156 20.515625 10.929688 Z M 20.515625 2.625"/> </clipPath> <image id="image6" width="36" height="36" xlink:href="data:image/png;base64,iVBORw0KGgoAAAANSUhEUgAAACQAAAAkCAYAAADhAJiYAAAABmJLR0QA/wD/AP+gvaeTAAAAmklEQVRYhe3T0QqCQBBG4aOtYEoUvf9Lildltl00C4tkbBeTIP+BAUEYP1YW1Pcqh53B9kbgaVPcwQF0tAmGSrMZ6AKcDQXw+AUVHEAtcAUaewYYgYmC3+cBCkAPnDJQMcoDVNnebgEqQnmAclTz4d0I3P4JStc9AjXvk4qLWQV53LLeEOl05gw4A3dgcPiuUkoppZRSSqk99gLWvSJpuDnlsAAAAABJRU5ErkJggg=="/> </defs> <g> <path style="fill:rgb(0%,0%,0%)" d="M 7.347656 3.152344 C 6.675781 3.152344 6.042969 3.785156 6.042969 4.457031 L 6.042969 31.847656 C 6.042969 32.480469 6.714844 33.152344 7.347656 33.152344 L 28.21875 33.152344 C 28.851562 33.152344 29.523438 32.480469 29.523438 31.847656 L 29.523438 11.632812 L 21.042969 3.152344 Z M 7.347656 3.152344"/> <g clip-path="url(#clip1)"> <g clip-path="url(#clip2)"> <use xlink:href="#image6"/> </g> </g> <path style="fill:rgb(20.000%,20.000%,20.000%)" d="M 21.042969 3.152344 L 29.523438 11.632812 L 22.347656 11.632812 C 21.714844 11.632812 21.042969 10.960938 21.042969 10.328125 Z M 21.042969 3.152344"/> <path style="fill:rgb(99.215%,49.019%,0%)" d="M 16.078125 12.671875 C 15.796875 13.074219 15.570312 14.449219 16.378906 15.132812 C 17.335938 15.945312 17.539062 16.925781 17.539062 18.410156 C 17.539062 20.496094 15.890625 22.167969 17.050781 24.148438 C 13.816406 21.292969 17.074219 17.015625 14.617188 15.28125 C 15.589844 17.886719 12.179688 19.453125 12.1875 21.984375 C 12.179688 24.667969 14.128906 26.234375 16.464844 26.226562 C 14.800781 25.503906 14.042969 23.3125 14.128906 22.0625 C 15.300781 24.90625 17.050781 26.234375 19.972656 26.234375 C 18.847656 24.660156 18.664062 24.460938 18.597656 23.457031 C 18.605469 22.53125 18.953125 22.328125 19.5625 21.167969 C 21.09375 18.59375 20.390625 15.996094 18.308594 14.785156 C 17.882812 14.558594 17.769531 14.496094 16.996094 14.171875 C 16.550781 13.949219 16.109375 13.46875 16.078125 12.671875 M 21.300781 17.03125 C 22.847656 19.148438 21.085938 20.867188 20.28125 22.164062 C 19.617188 23.183594 20.253906 24.867188 20.949219 26.234375 C 21.007812 25.078125 21.730469 24.285156 22.3125 23.871094 C 24.09375 22.433594 24.152344 20.554688 23.203125 18.886719 C 22.609375 17.96875 22.085938 17.671875 21.300781 17.03125 M 21.300781 17.03125"/> </g> </svg>

<svg width="36pt" height="36pt" version="1.1" viewBox="0 0 36 36" xmlns="http://www.w3.org/2000/svg"><defs><filter id="a" x="-.192" y="-.192" width="1.384" height="1.384" color-interpolation-filters="sRGB"><feGaussianBlur stdDeviation="0.67843748"/></filter></defs><path d="m7.3477 3.9022c-0.67188 0-1.3047 0.63281-1.3047 1.3047v27.391c0 0.63281 0.67188 1.3047 1.3047 1.3047h20.871c0.63281 0 1.3047-0.67188 1.3047-1.3047v-20.215l-8.4805-8.4805z" opacity=".3"/><path d="m7.3477 3.1523c-0.67188 0-1.3047 0.63281-1.3047 1.3047v27.391c0 0.63281 0.67188 1.3047 1.3047 1.3047h20.871c0.63281 0 1.3047-0.67188 1.3047-1.3047v-20.215l-8.4805-8.4805z"/><path d="m20.668 3.5272 8.4805 8.4805h-7.1758c-0.63281 0-1.3047-0.67187-1.3047-1.3047z" filter="url(#a)" opacity=".2"/><path d="m21.043 3.1523 8.4805 8.4805h-7.1758c-0.63281 0-1.3047-0.67187-1.3047-1.3047z" fill="#333"/><path d="m16.078 12.672c-0.28125 0.40234-0.50781 1.7773 0.30078 2.4609 0.95703 0.8125 1.1602 1.793 1.1602 3.2773 0 2.0859-1.6484 3.7578-0.48828 5.7383-3.2344-2.8555 0.023438-7.1328-2.4336-8.8672 0.97266 2.6055-2.4375 4.1719-2.4297 6.7031-0.007812 2.6836 1.9414 4.25 4.2773 4.2422-1.6641-0.72266-2.4219-2.9141-2.3359-4.1641 1.1719 2.8438 2.9219 4.1719 5.8438 4.1719-1.125-1.5742-1.3086-1.7734-1.375-2.7773 0.007813-0.92578 0.35547-1.1289 0.96484-2.2891 1.5312-2.5742 0.82812-5.1719-1.2539-6.3828-0.42578-0.22656-0.53906-0.28906-1.3125-0.61328-0.44531-0.22266-0.88672-0.70312-0.91797-1.5m5.2227 4.3594c1.5469 2.1172-0.21484 3.8359-1.0195 5.1328-0.66406 1.0195-0.027344 2.7031 0.66797 4.0703 0.058593-1.1562 0.78125-1.9492 1.3633-2.3633 1.7812-1.4375 1.8398-3.3164 0.89062-4.9844-0.59375-0.91797-1.1172-1.2148-1.9023-1.8555" fill="#fc7c00"/></svg>
